assets/images/services.svg

<?xml version="1.0" encoding="UTF-8"?>
<!DOCTYPE svg PUBLIC "-//W3C//DTD SVG 1.1//EN" "http://www.w3.org/Graphics/SVG/1.1/DTD/svg11.dtd">
<svg xmlns="http://www.w3.org/2000/svg" version="1.1" width="140px" height="128px" style="shape-rendering:geometricPrecision; text-rendering:geometricPrecision; image-rendering:optimizeQuality; fill-rule:evenodd; clip-rule:evenodd" xmlns:xlink="http://www.w3.org/1999/xlink">
<g><path style="opacity:0.771" fill="#fefdfd" d="M 87.5,13.5 C 89.1992,13.3398 90.8659,13.5065 92.5,14C 97.322,18.1561 102.655,21.4894 108.5,24C 110.667,26.1667 112.833,28.3333 115,30.5C 115.236,32.764 115.736,34.9307 116.5,37C 125.515,38.4094 132.348,42.9094 137,50.5C 138.52,53.4881 138.686,56.4881 137.5,59.5C 136.448,59.3505 135.448,59.5172 134.5,60C 136.574,63.0215 137.907,66.3548 138.5,70C 137.833,72 136.5,73.3333 134.5,74C 137.472,77.3906 138.472,81.224 137.5,85.5C 136.271,86.2811 134.938,86.7811 133.5,87C 141.439,99.4841 138.106,107.817 123.5,112C 114.158,113.966 104.825,113.966 95.5,112C 86.7032,110.192 80.7032,105.192 77.5,97C 78.7232,92.1082 81.7232,88.7748 86.5,87C 95.4148,84.572 104.081,85.2387 112.5,89C 115.21,90.4598 115.876,92.4598 114.5,95C 108.736,93.5287 102.903,92.0287 97,90.5C 79.8369,93.9997 79.3369,99.1664 95.5,106C 103.472,107.414 111.306,107.914 119,107.5C 135.723,102.027 136.556,94.8606 121.5,86C 102.932,80.1073 84.5989,80.9406 66.5,88.5C 64.7632,95.0708 60.5966,99.0708 54,100.5C 47.576,99.4131 45.2426,95.7464 47,89.5C 49.1431,83.6793 53.3097,80.6793 59.5,80.5C 59.8226,76.774 59.4892,73.1073 58.5,69.5C 51.9044,71.4822 45.2377,73.1489 38.5,74.5C 38.6664,83.1731 38.4998,91.8397 38,100.5C 36.0477,105.957 32.2143,108.957 26.5,109.5C 19.2497,106.946 17.583,102.279 21.5,95.5C 15.8435,93.671 10.5101,91.171 5.5,88C 2.50877,85.8586 1.34211,83.0252 2,79.5C 3.04946,78.4829 4.21613,78.3162 5.5,79C 12.6495,86.8865 21.6495,90.3865 32.5,89.5C 32.5,86.8333 32.5,84.1667 32.5,81.5C 21.2561,83.2771 11.5894,80.2771 3.5,72.5C 0.512932,69.3207 0.846266,66.654 4.5,64.5C 11.5927,73.3213 20.926,77.3213 32.5,76.5C 32.5,73.8333 32.5,71.1667 32.5,68.5C 21.3777,69.5797 11.5443,66.2464 3,58.5C 1.79777,56.3225 1.29777,53.9892 1.5,51.5C 3.28801,51.2148 4.95467,51.5481 6.5,52.5C 8.5109,55.6769 11.1776,58.1769 14.5,60C 20.3406,61.9509 26.3406,62.7842 32.5,62.5C 31.7274,57.7733 33.7274,55.2733 38.5,55C 32.1667,54.6667 25.8333,54.3333 19.5,54C 5.97678,51.7584 0.143448,43.9251 2,30.5C 6.83234,23.1623 13.6657,18.9956 22.5,18C 31.4552,16.7665 40.1219,17.7665 48.5,21C 54.0225,23.4899 56.5225,27.6566 56,33.5C 55.2753,34.0585 54.4419,34.3918 53.5,34.5C 51.3946,32.7383 49.728,30.5716 48.5,28C 37.8171,22.8326 26.8171,22.1659 15.5,26C 6.11342,31.041 5.11342,37.3744 12.5,45C 14.7173,46.2754 17.0506,47.2754 19.5,48C 26.5,48.6667 33.5,48.6667 40.5,48C 55.7742,43.8481 71.1075,40.0148 86.5,36.5C 86.2329,28.7777 86.5663,21.111 87.5,13.5 Z M 92.5,22.5 C 98.1938,25.434 103.694,28.7673 109,32.5C 109.798,34.2588 109.631,35.9255 108.5,37.5C 104.333,33.9132 99.6662,31.0798 94.5,29C 92.771,27.2111 92.1043,25.0444 92.5,22.5 Z M 92.5,34.5 C 95.9233,36.0713 99.2566,37.9046 102.5,40C 103.966,41.5522 104.966,43.3855 105.5,45.5C 103.278,51.0348 101.612,56.7015 100.5,62.5C 97.8333,62.5 95.1667,62.5 92.5,62.5C 92.5,53.1667 92.5,43.8333 92.5,34.5 Z M 84.5,42.5 C 86.369,44.6353 87.0356,47.3019 86.5,50.5C 79.3462,51.0642 72.3462,52.3975 65.5,54.5C 65.7529,52.1727 65.0863,50.1727 63.5,48.5C 70.4688,46.0113 77.4688,44.0113 84.5,42.5 Z M 113.5,42.5 C 120.387,43.5136 126.22,46.5136 131,51.5C 131.681,53.5292 132.014,55.5292 132,57.5C 126.114,53.4764 119.614,50.9764 112.5,50C 112.043,49.586 111.709,49.086 111.5,48.5C 112.747,46.677 113.414,44.677 113.5,42.5 Z M 58.5,55.5 C 59.8003,58.0241 59.8003,60.6908 58.5,63.5C 51.8248,65.1688 45.1581,66.8355 38.5,68.5C 38.5,65.8333 38.5,63.1667 38.5,60.5C 45.4709,59.6123 52.1376,57.9457 58.5,55.5 Z M 108.5,55.5 C 115.738,55.9684 122.405,58.135 128.5,62C 131.066,64.7027 132.233,67.8693 132,71.5C 130.269,69.3834 128.102,67.8834 125.5,67C 119.602,65.0542 113.602,63.5542 107.5,62.5C 106.368,60.0097 106.701,57.6763 108.5,55.5 Z M 81.5,56.5 C 83.288,56.2148 84.9547,56.5481 86.5,57.5C 80.8871,58.3106 76.5538,61.1439 73.5,66C 70.9471,66.7611 68.4471,67.5944 66,68.5C 65.5026,65.854 65.3359,63.1873 65.5,60.5C 71.0202,59.4533 76.3536,58.12 81.5,56.5 Z M 82.5,64.5 C 83.8333,64.5 85.1667,64.5 86.5,64.5C 86.5,69.1667 84.1667,71.5 79.5,71.5C 79.1496,68.5466 80.1496,66.2133 82.5,64.5 Z M 132.5,85.5 C 125.966,81.0427 118.8,78.0427 111,76.5C 102.834,76.5159 94.6669,76.5159 86.5,76.5C 88.6664,74.1633 90.6664,71.6633 92.5,69C 104.305,67.5911 115.638,69.2578 126.5,74C 130.227,76.9545 132.227,80.7879 132.5,85.5 Z M 83.5,77.5 C 77.5918,78.8078 71.5918,80.1411 65.5,81.5C 65.1924,79.076 65.5258,76.7427 66.5,74.5C 68.6378,73.7569 70.8044,73.0903 73,72.5C 75.5203,76.1764 79.0203,77.8431 83.5,77.5 Z M 56.5,86.5 C 57.5,86.5 58.5,86.5 59.5,86.5C 59.4539,90.3818 57.6206,93.0485 54,94.5C 52.182,91.1107 53.0154,88.444 56.5,86.5 Z M 29.5,95.5 C 30.5,95.5 31.5,95.5 32.5,95.5C 32.498,99.3488 30.6647,102.015 27,103.5C 26.1301,102.892 25.6301,102.059 25.5,101C 26.2958,98.7145 27.6291,96.8812 29.5,95.5 Z"/></g>
</svg>

<svg xmlns="http://www.w3.org/2000/svg" width="140" height="128" style="shape-rendering:geometricPrecision;text-rendering:geometricPrecision;image-rendering:optimizeQuality;fill-rule:evenodd;clip-rule:evenodd"><path fill="#fefdfd" d="M87.5 13.5q2.55-.24 5 .5a61.6 61.6 0 0 0 16 10l6.5 6.5q.354 3.395 1.5 6.5 13.522 2.115 20.5 13.5 2.28 4.482.5 9a4.93 4.93 0 0 0-3 .5 24.4 24.4 0 0 1 4 10q-1 3-4 4 4.458 5.086 3 11.5a10.26 10.26 0 0 1-4 1.5q11.909 18.726-10 25-14.013 2.949-28 0-13.195-2.712-18-15 1.834-7.338 9-10 13.372-3.642 26 2 4.065 2.19 2 6A5189 5189 0 0 1 97 90.5q-25.744 5.25-1.5 15.5 11.959 2.121 23.5 1.5 25.084-8.21 2.5-21.5-27.852-8.84-55 2.5-2.605 9.855-12.5 12-9.636-1.63-7-11 3.215-8.73 12.5-9a31.1 31.1 0 0 0-1-11 219 219 0 0 1-20 5q.25 13.01-.5 26-2.928 8.185-11.5 9-10.875-3.831-5-14a70.2 70.2 0 0 1-16-7.5Q1.013 84.788 2 79.5q1.574-1.526 3.5-.5 10.725 11.829 27 10.5v-8q-16.865 2.666-29-9-4.48-4.77 1-8 10.64 13.231 28 12v-8Q15.817 70.12 3 58.5q-1.803-3.266-1.5-7 2.682-.428 5 1 3.016 4.766 8 7.5a49.2 49.2 0 0 0 18 2.5q-1.16-7.09 6-7.5l-19-1Q-.785 50.637 2 30.5 9.249 19.493 22.5 18q13.433-1.85 26 3 8.284 3.735 7.5 12.5a4.94 4.94 0 0 1-2.5 1q-3.158-2.643-5-6.5-16.025-7.75-33-2-14.08 7.561-3 19a32.5 32.5 0 0 0 7 3q10.5 1 21 0a1159 1159 0 0 1 46-11.5 147 147 0 0 1 1-23m5 9a140.5 140.5 0 0 1 16.5 10q1.197 2.638-.5 5-6.25-5.38-14-8.5-2.594-2.684-2-6.5m0 12a80 80 0 0 1 10 5.5q2.199 2.329 3 5.5a92 92 0 0 0-5 17h-8zm-8 8q2.804 3.203 2 8a97.4 97.4 0 0 0-21 4q.38-3.49-2-6a166 166 0 0 1 21-6m29 0q10.33 1.521 17.5 9 1.021 3.045 1 6-8.829-6.036-19.5-7.5a3.65 3.65 0 0 1-1-1.5q1.87-2.734 2-6m-55 13q1.95 3.785 0 8l-20 5v-8q10.456-1.331 20-5m50 0q10.857.702 20 6.5 3.85 4.055 3.5 9.5-2.597-3.175-6.5-4.5a126 126 0 0 0-18-4.5q-1.698-3.735 1-7m-27 1q2.682-.428 5 1-8.42 1.215-13 8.5a122 122 0 0 0-7.5 2.5 32.4 32.4 0 0 1-.5-8 140 140 0 0 0 16-4m1 8h4q0 7-7 7-.525-4.43 3-7m50 21q-9.8-6.685-21.5-9-12.25.024-24.5 0a66 66 0 0 0 6-7.5q17.707-2.113 34 5 5.59 4.431 6 11.5m-49-8q-8.862 1.962-18 4a13.1 13.1 0 0 1 1-7 95 95 0 0 1 6.5-2q3.78 5.514 10.5 5m-27 9h3q-.07 5.823-5.5 8-2.727-5.085 2.5-8m-27 9h3q-.003 5.773-5.5 8-1.305-.912-1.5-2.5 1.195-3.428 4-5.5" style="opacity:.771"/></svg>
